X:40
T:Waltz. WHG.039
R:mazurka
S:W.H.Giles MS,Bampton,Oxfordshire,1839p37
O:England
H:donated by Mrs W.R.Kettlewell to VWML,Apr 1927.
A:Bampton, Oxfordshire
N:No KS in MS. Exact transcription doesn’t have 2nd & 4th barlines in B music.
N:My own interpretation follows the tune.
Z:PJHeadford – VMP 2009
M:3/8
L:1/16
Q:3/8=50
K:C
(A/B/c/d/)|d2dA df|d2dA df|\
d2dA df|e4 ed c2cA ce|\
c2cA ce a2 agfe|d4:|
|:ag|f2g2a2| b4 ag|e2f2g2| a4 fe|\
d2e2f2|g2a2b2|a2 af ge|d4:|
|:” version edited by PJH”(A/B/c/d/)|d2dA df|d2dA df|\
d2dA df|e4 ed|\
c2cA ce|c2cA ce|a2 agfe|d4:|
ag|:(3fga b2 ag|(3efg a2 fe|1\
d2e2f2|g2a2b2:|2a2 af ge|d4|]

